X: 1
T:Funiculi Funicula (1)
M: 6/8
L: 1/4
Q: 1/2=100
K: F
 (e3/2d/2) z/2z/2 | (e3/2d/2) z/2z/2 | fe/2df/2 | (e3/2e/2) z/2z/2 | (e3/2d/2) z/2z/2 | (e3/2d/2) z/2z/2 | (fe/2) df/2 |
 cA/2AA/2 | AA/2AA/2 | AA/2AA/2 | AA/2AA/2 | f3 | gf/2df/2| dA/2AB/2 | cB/2AG/2 | Fz/2fz/2 ||
